static/assets/images/tokens/fdusd.svg

<svg width="256" height="256" viewBox="0 0 256 256" fill="none" xmlns="http://www.w3.org/2000/svg">
<path d="M197.5 103.577V134.557H112.379V53.6375H197.5V84.6182H147.538V103.577H197.5Z" fill="white"/>
<path fill-rule="evenodd" clip-rule="evenodd" d="M256 128C256 198.692 198.692 256 128 256C57.3075 256 0 198.692 0 128C0 57.3075 57.3075 0 128 0C198.692 0 256 57.3075 256 128ZM197.5 134.557V103.577H147.538V84.6182H197.5V53.6375H112.379V134.557H197.5ZM152.626 152.591H46.6875V196.75H152.626V152.591Z" fill="black"/>
<path d="M46.6875 152.591H152.626V196.75H46.6875V152.591Z" fill="#25E7A1"/>
</svg>

<svg xmlns="http://www.w3.org/2000/svg" fill="none" viewBox="0 0 256 256"><path fill="#fff" d="M197.5 103.577v30.98h-85.121v-80.92H197.5v30.981h-49.962v18.959z"/><path fill="#000" fill-rule="evenodd" d="M256 128c0 70.692-57.308 128-128 128S0 198.692 0 128 57.308 0 128 0s128 57.308 128 128m-58.5 6.557v-30.98h-49.962V84.618H197.5v-30.98h-85.121v80.919zm-44.874 18.034H46.688v44.159h105.938z" clip-rule="evenodd"/><path fill="#25E7A1" d="M46.688 152.591h105.938v44.159H46.688z"/></svg>
